X:1
T:Title
%%score [ ( 1 2 ) ( 3 4 ) 5 ( 6 7 ) ]
L:1/8
Q:1/4=60
M:5/8
K:G
V:1 treble nm="S."
V:2 treble 
V:3 treble nm="A."
V:4 treble 
V:5 treble-8 nm="T."
V:6 bass nm="B."
V:7 bass 
V:1
"^Anon. 15th cent.""^Fast and light"!mf! d2 d cB | A2"^As dew in Aprylle" G ED | %2
w: I syng of a|may- den That is|
 G2"^Peter Warlock""^(1894-1930)" G E3/2 z/ |!<(! G2 A Bd!<)! |!f! g2 d BB |[M:6/8] d2 d B2 x | %6
w: ma- kè- les,|Kyng of al- lè|kyng- es To here|sone che ches.|
[M:6/8] z x5 |[M:6/8] z2!f! d dcB |[M:4/8] AGED | G>G E2!<(! x |[M:5/8] G2 A B!<)!d x | %11
w: |I syng of a|may- den That is|ma- kè- les,|Kyng of al- lè|
[M:3/4]!ff! g2 d2 BB |[M:6/8] d2 d"^," B2!p!"^(Semi chorus I)" d |[M:4/8] e2 =fe x | %14
w: kyng- es to here|sone che ches. He|cam al so|
[M:5/8] d2 B BB | cB d2 d |[M:4/8] e2 =fe | d2 BB x |[M:5/8] G2 A cB | %19
w: styl- le Ther his|mo- der was, As|dew in A-|pryl- le That|fall- yt on the|
[M:3/8] d2"^,""^(Semi chorus II)" B x |[M:4/8] d2 BB x |[M:5/8] d2 B BB | cB d2 A |[M:4/8] c2 BA | %24
w: gras. He|cam al so|styl- lè To his|mo- deres bowr As|dew in A-|
 c2 BA x |[M:5/8] e2 c AG |[M:4/8] B3!pp!"^,""^(Semi chorus I)" B | A2 BB!<(! x | %28
w: pril- le That|fall- yt on the|flour. He|cam al so|
[M:5/8] d2!<)!!>(! B AB!>)! x |[M:6/8] d2 ^c B2 ^A |[M:4/8] B2 !courtesy!=AA | e2 AA x | %32
w: styl- le Ther his|mo- der lay As|dew in A-|pril- le That|
[M:5/8]"^poco rit." e2 c AF x |[M:3/4]"^," !fermata!A6 |[M:4/8]!f!"^a tempo""^Full chorus" g2 fe | %35
w: fall- yt on the|spray.|Mo- der and|
 d2 BB | d<ff>e | d4 x |[M:5/8]!mp! e2"^much slower"!<(! d c!>(!B | A3!<)!!>)! !fermata!G2 x x2 | %40
w: may- dyn Was|ne- ver non but|che;|Wel may swych a|la- dy|
[M:6/8]"^almost twice as slow" z!p! ED G2 G | !fermata!d6 | %42
w: God- ès mo- der|be.|
V:2
 x5 | x5 | x5 | x5 | (gf/e/)d x2 |[M:6/8] x6 |[M:6/8] x6 |[M:6/8] x6 |[M:4/8] x4 | x5 |[M:5/8] x6 | %11
[M:3/4] x6 |[M:6/8] x6 |[M:4/8] x5 |[M:5/8] x5 | x5 |[M:4/8] x4 | x5 |[M:5/8] x5 |[M:3/8] x4 | %20
[M:4/8] x5 |[M:5/8] x5 | x5 |[M:4/8] x4 | x5 |[M:5/8] x5 |[M:4/8] x4 | x5 |[M:5/8] x6 |[M:6/8] x6 | %30
[M:4/8] x4 | x5 |[M:5/8] x6 |[M:3/4] x6 |[M:4/8] x4 | x4 | d<d^c>c | (c2 BA) x |[M:5/8] x5 | x8 | %40
[M:6/8] x6 | G6 | %42
V:3
!mf! G2 G GF | (EF/E/)D CC | (DB,)C A,3/2 z/ |!<(! ^C2 F GB!<)! |!f! (d/c/B/A/)A GG | %5
w: I syng of a|may * * den That is|ma * kè- les,|Kyng of al- lè|kyng * * * es To here|
w: |||||
[M:6/8] B2 A G2 z |[M:6/8] z2!f! ^G EA=G |[M:4/8] C>CB,A, x2 |[M:5/8] (D/F/E/)D/ C2 | %9
w: sone che ches.|I syng of a|may- den That is|ma * * kè- les,|
w: ||||
[M:5/8]!<(! ^C2 E F!<)!^G |[M:3/4]!ff! (B>A) !courtesy!=G2 GG |[M:6/8] G2 F"^," G2!p! G | %12
w: Kyng of al- lè|kyng * es to here|sone che ches. He|
w: |||
[M:4/8] G2 GG x2 |[M:5/8] G2 G AF | EE F2 G |[M:4/8] _B2 AG x | G2 FE |[M:5/8] ^D2 E ^GG | %18
w: cam al so|styl- le Ther his|mo- der was, As|dew in A-|pryl- le That|fall- yt on the|
w: ||||||
[M:3/8] A2"^," !courtesy!=G x2 |[M:4/8] A2 GF |[M:5/8] A2 G AF | EE A2 F |[M:4/8] G2 GF x | G2 FF | %24
w: gras. He|cam al so|styl- lè To his|mo- deres bowr As|dew in A-|pril- le That|
w: ||||||
[M:5/8] G2 G EE |[M:4/8] (E2 B,)!pp!"^,"E x | E2!<(! EE |[M:5/8] G2!<)! E EE |[M:6/8] G2 ^G =G2 G | %29
w: fall- yt on the|* * He|cam al so|styl- le Ther his|mo- der lay As|
w: |flour. * *||||
[M:4/8] G2 GG x2 | ^G2 =GF |[M:5/8]"^poco rit." =F2 _A C^C | %32
w: dew in A-|pril- le That|fall- yt on the|
w: |||
[M:3/4] (G2"^," !fermata!!courtesy!^F4) |[M:4/8]!f!"^a tempo" B2 BG x2 | G2 ^DE | G<G^G>G | %36
w: spray. *|Mo- der and|may- dyn Was|ne- ver non but|
w: ||||
 (!courtesy!=G2 FE) |[M:5/8]!mp!"^much slower" G2!<(! G ^GF | %38
w: che; * *|Wel may swych a|
w: ||
 (E/F/!<)!!courtesy!=G/F/E/)D/ !fermata!C2 |[M:6/8] z!p!"^almost twice as slow" _B,A, D2 ^C | %40
w: la * * * * * dy||
w: |God- ès mo- der|
 !fermata!!courtesy!=B,6 | x6 | %42
w: ||
w: be.||
V:4
 x5 | x5 | x5 | x x x x x | x x x x x |[M:6/8] G2 F G2 x |[M:6/8] z2 E !courtesy!=GEG |[M:4/8] x6 | %8
[M:5/8] x4 |[M:5/8] x5 |[M:3/4] x6 |[M:6/8] x6 |[M:4/8] x6 |[M:5/8] x5 | x5 |[M:4/8] x5 | x4 | %17
[M:5/8] x5 |[M:3/8] x5 |[M:4/8] x4 |[M:5/8] x5 | x5 |[M:4/8] x5 | x4 |[M:5/8] x5 |[M:4/8] x5 | x4 | %27
[M:5/8] x5 |[M:6/8] x6 |[M:4/8] x6 | x4 |[M:5/8] x5 |[M:3/4] x6 |[M:4/8] x6 | x4 | x4 | x4 | %37
[M:5/8] x5 | x5 |[M:6/8] x6 | x6 | x6 | %42
V:5
!mf! B2 B ed | (cd/c/)B A_A | G2 G G3/2 z/ | A2 e eg |!f! g2 f ee |[M:6/8] e2 d d2 z | %6
w: I syng of a|may * * den That is|ma- kè- les,|Kyng of al- lè|kyng- es To here|sone che ches.|
[M:6/8][K:treble-8] z2!f! d c>d (e/f/) |[M:4/8] (g/f/e/d/)GF/F/ x2 | E>F G2 | %9
w: I syng of a *|may * * * den That is|ma- kè- les,|
[M:5/8][K:treble-8] A2 !courtesy!=c dB |[M:3/4]!ff! (d>^c) B2 ee | %11
w: Kyng of al- lè|kyng * es to here|
[M:6/8] !courtesy!=c2 c"^," B2!p! B |[M:4/8] c2 dc x2 |[M:5/8][K:treble-8] B2 d fd | AB B2 B | %15
w: sone che ches. He|cam al so|styl- le Ther his|mo- der was, As|
[M:4/8] d2 _B=B x | (A>B)d^c |[M:5/8][K:treble-8] !courtesy!=c2 c ^dd | %18
w: dew in A-|pryl * le That|fall- yt on the|
[M:3/8] B2"^," !courtesy!=d x2 |[M:4/8] B2 dd |[M:5/8] B2 d fd | cc c2 d |[M:4/8] e2 ee x | %23
w: gras. He|cam al so|styl- lè To his|mo- deres bowr As|dew in A-|
 ^d2 de |[M:5/8] c2 e cc |[M:4/8][K:treble-8] (B2 e)!pp!"^,"G x | B2 BB |[M:5/8] B2 G BB | %28
w: pril- le That|fall- yt on the|flour. * He|cam al so|styl- le Ther his|
[M:6/8] e2 e e2 ^d |[M:4/8][K:treble-8] e2 ee x2 | e2 ee |[M:5/8]"^poco rit." ^g2 =f eA | %32
w: mo- der lay As|dew in A-|pril- le That|fall- yt on the|
[M:3/4] (!courtesy!=c4"^," !fermata!d2) |[M:4/8][K:treble-8]!f!"^a tempo" g2 fe x2 | d2 cc | %35
w: spray. *|Mo- der and|may- dyn Was|
 B<B^A>A | (!courtesy!=A2 Bc) |[M:5/8][K:treble-8]!mp!"^much slower" B2 B ^d=d | %38
w: ne- ver non but|che; * *|Wel may swych a|
 (cB/A/G/F/) !fermata!E2 |[M:6/8] z!p!"^almost twice as slow" F=F (ED)E | !fermata!G6 | x6 | %42
w: la * * * * dy|God- ès mo * der|be.||
V:6
!mf! G,2 G, G,G, | (G,D,)E, F,=F, | E,2 E, C,3/2 z/ | E,2 !courtesy!=C B,F |!f! (ED/C/)B, ED | %5
w: I syng of a|may * den That is|ma- kè- les,|Kyng of al- lè|kyng * * es To here|
[M:6/8] C2 A, G,2!f!"^sempre" !tenuto!D | %6
w: sone che ches. I|
[M:6/8] !tenuto!D!tenuto!C!tenuto!B, !tenuto!A,!tenuto!G,E,/D,/ |[M:4/8] E,>E,D,C, x2 | %8
w: syng of a may- den, of a|may- den That is|
[M:5/8] B,,>B,, A,,2 |[M:5/8]"^This edition""^?""^Andrew Sims 2005" E,2 F, G,E, | %10
w: ma- kè- les,|Kyng of al- lè|
[M:3/4]!ff! E,2 (E,>D,) ED |[M:6/8] A,2 A,"^," G,2!p! G, |[M:4/8] G,2 G,G, x2 | %13
w: kyng- ès * to here|sone che ches. He|cam al so|
[M:5/8] G,2 G, G,G, | G,G, D,2 E, |[M:4/8] C,2 ^C,C, x | D,2 D,D, |[M:5/8] A,2 G, F,=F, | %18
w: styl- le Ther his|mo- der was, As|dew in A-|pryl- le That|fall- yt on the|
[M:3/8] E,2"^," G, x2 |[M:4/8] E,2 G,G, |[M:5/8] E,2 G, G,G, | A,G, F,2 B, |[M:4/8] A,2 B,C x | %23
w: gras. He|cam al so|styl- lè To his|mo- deres bowr As|dew in A-|
 A,2 B,C |[M:5/8] A,2 A, G,A, |[M:4/8] G,3!pp!"^," G, x | F,2 G,G, |[M:5/8] E2 B, F,G, | %28
w: pril- le That|fall- yt on the|flour. He|cam al so|styl- le Ther his|
[M:6/8] B,2 ^A, B,2 !courtesy!=C |[M:4/8] B,2 CC x2 | ^C2 =CC |[M:5/8]"^poco rit." C2 D F,^D, | %32
w: mo- der lay As|dew in A-|pril- le That|fall- yt on the|
[M:3/4]"^," !fermata!E,6 |[M:4/8]!f!"^a tempo" E2 DC x2 | B,2 G,G, | E,<E,E,>E, | D,4 | %37
w: spray.|Mo- der and|may- dyn Was|ne- ver non but|che;|
[M:5/8]!mp!"^much slower" E,2 G, =F,^G, | (A, D,2) !fermata!D,2 | %39
w: Wel may swych a|la * dy|
[M:6/8] z!p!"^almost twice as slow" ^C,B,, _B,,2 A,, | !fermata!G,,6 | x6 | %42
w: God- ès mo- der|be.||
V:7
 x5 | x5 | x5 | x x x x x | x x x x x |[M:6/8] A,2 D, G,2 x |[M:6/8] x6 |[M:4/8] G,,>G,,D, x3 | %8
[M:5/8] x4 |[M:5/8] x5 |[M:3/4] A,,2 x2 x2 |[M:6/8] D,2 D, G,,2 x |[M:4/8] x2 x2 x2 |[M:5/8] x5 | %14
 x5 |[M:4/8] x5 | x4 |[M:5/8] x5 |[M:3/8] x5 |[M:4/8] x4 |[M:5/8] x5 | x5 |[M:4/8] x5 | x4 | %24
[M:5/8] x5 |[M:4/8] x5 | x4 |[M:5/8] x5 |[M:6/8] x6 |[M:4/8] x6 | x4 |[M:5/8] x5 |[M:3/4] x6 | %33
[M:4/8] x6 | x4 | x4 | x4 |[M:5/8] x5 | x5 |[M:6/8] x6 | x6 | x6 | %42

